X: 13139
T: First House In Connaught, The
R: reel
M: 4/4
K: Gmajor
|:DGG2 AGG2|BGdG BGAF|DFF2 AFF2|ABcA BGAF|
DGG2 AGG2|BGdG BGG2|defg agfd|1 cAFA G3E:|2 cAFA G3d||
|:g3a gfdg|g2bg ageg|fAdg fAdg|fgaf bgaf|
g3a gfdg|g2bg agfe|defg agfd|1 cAFA G3d:|2 cAFA G3E||

